src/lib/packages/icons/src/assets/filled/user-tag.svg

<svg width="24" height="24" viewBox="0 0 24 24" fill="none" xmlns="http://www.w3.org/2000/svg">
<path d="M17.667 2H6.33398C4.11198 2 3.00098 3.11101 3.00098 5.33301V15.333C3.00098 17.555 4.11198 18.666 6.33398 18.666H7.83398C8.35898 18.666 8.85299 18.913 9.16699 19.333L10.667 21.333C11.334 22.222 12.667 22.222 13.334 21.333L14.834 19.333C15.149 18.913 15.643 18.666 16.167 18.666H17.667C19.889 18.666 21 17.555 21 15.333V5.33301C21 3.11101 19.889 2 17.667 2ZM12 5C13.24 5 14.25 6.009 14.25 7.25C14.25 8.491 13.24 9.5 12 9.5C10.76 9.5 9.75 8.491 9.75 7.25C9.75 6.009 10.76 5 12 5ZM13.994 16H9.99695C8.72495 16 7.995 15.274 7.995 14.009C7.995 12.621 8.781 11 10.995 11H12.995C15.209 11 15.995 12.621 15.995 14.009C15.995 15.274 15.266 16 13.994 16Z" fill="currentColor"/>
</svg>

<svg xmlns="http://www.w3.org/2000/svg" width="24" height="24" fill="none"><path fill="currentColor" d="M17.667 2H6.334C4.112 2 3.001 3.111 3.001 5.333v10c0 2.222 1.111 3.333 3.333 3.333h1.5c.525 0 1.019.247 1.333.667l1.5 2c.667.889 2 .889 2.667 0l1.5-2c.315-.42.809-.667 1.333-.667h1.5c2.222 0 3.333-1.111 3.333-3.333v-10C21 3.111 19.889 2 17.667 2ZM12 5c1.24 0 2.25 1.009 2.25 2.25S13.24 9.5 12 9.5a2.253 2.253 0 0 1-2.25-2.25C9.75 6.009 10.76 5 12 5Zm1.994 11H9.997c-1.272 0-2.002-.726-2.002-1.991 0-1.388.786-3.009 3-3.009h2c2.214 0 3 1.621 3 3.009 0 1.265-.729 1.991-2.001 1.991Z"/></svg>
